X:12
T:12. Wintergruen
K: Bb
M:3/4
L:1/8
N:Written with second voice, 2012 Apr 5
|: D3 C B,2 | D4 D2 | F2 (GF) (ED) | (G2F2) F2 | \
M:4/4
L:1/4
E2 E2 | \
M:3/4
L:1/8
(EG) (GF) (FE) |  D2 z2 z2  :|
% End first (and only) line part A Wintergruen
K:Eb
|: G3 F E2 |  G2 G2  G2 | E2 (FE) (DC) | (C2 B,2) B,2 | \
M:4/4
L:1/4
A2 G2 |1 \
M:3/4
L:1/8
(DF) (FB,) (B,D) | E2 z2 z2 :| \
M:3/4
L:1/8
(DF) (FD) (EF) | G2 z2 z2 |]

